X:1
T:Voglio Siscà
T:Voglio Siscà
T:Duettino su motivo tedesco
T:Anonimo
T:Aniello Califano
T:-  Pure l'avisse a ténére 'nu poco ' carità! -  Ne tengo tanto 'a vennere: e... 'mparate ìe parlà! -  Sò già sunato ll'undece mo s'adda repusà! -  Senza ca cunte chiacchiere io nun me movo a ccà! Oje ni', tu vuò ecc. 
T:-  Ma che t'avisse a credere, ch'i' so' nuviello 'e ccà? -  Tu certo qualche chicchera Haie avuto 'a piglià! -  Sì Maria Rosa Spingula? -  (E vi' si se ne và)! -  Io nun te faccio vencere, Ca juorno ha da schiarà! Oje ni', tu vuò ecc.
T:by IMSLP - Public Domain
T:by IMSLP - Public Domain
T:by IMSLP - Public Domain
C:Anonimo
Z:Aniello Califano
Z:by IMSLP - Public Domain
%%score 1 { 2 | 3 }
L:1/8
Q:1/4=80
M:2/4
K:F
V:1 treble nm="Voice"
V:2 treble nm="Piano"
V:3 bass 
V:1
 z | z4 | z4 | z4 | z4 | z4 | z4 | z4 | z z2"^Lei" c | d c c B | B3/2 A/ A A | A2 B A | B z z A | %13
w: ||||||||E|me\- na mò, fer\-|ni\- sce la Tua|chi vuò stu\-|nà E|
 B A G F | F3/2 E/ E c/ c/ | c =B _B G | A z z"^Lui" c | d c/ c/ c B | B3/2 A/ A A | A A B A | %20
w: se\- sca e se\- sca|ca\- spe\- tà| Pu\- rea|vis\- se 'a stre\-|quà Sto'|mmie\- zo a'na vi\- a|prub\- be\- ca Ni\-|sciu\- no po' par\-|
 B z z A | B A G E | F3/2 E/ E c | c=B _B G | F z z"^Lei" c | c c/ c/ c c | d z z c | c c c c | %28
w: là! 'A|ca\- pa di\- ce:|se\- sche\- la; E io|tag- * gia si\-|scà Oje|nì' tu, vuò ncui\- tàa|me? Vi\-|de'e me fa dur\-|
 B z z c | e e e e | d3/2 c/ f d | c =B _B G | F z z"^Lui" c | c c/ c/ c c | d z z c | c c c c | %36
w: mì Ca|si se sce\- ta|fra\- te\- me Nun|me par\- làac\- cus\-|sì Ah!|Ah! so co\- see cre\-|pà Vi'|che s'ha da pas\-|
 B z z c | e e e e | d3/2 c/ f d | c^c d e |1,2 f z z2 :|3 f z !fermata!z2 |] %42
w: sà! Che|me ne 'mpor\- tae|fra\- te\- te; I|vo- * glio si\-|scà|scà|
V:2
 [cac'] | [dad'][cac'][cac'][Bfb] | [Bfb]/>[Afa]/[Afa]/>[^Gf^g]/ [Afa][Afa] | %3
 [cfa][cfa][c^fb][cfa] | [Bgb]/>B/d/>g/ bg/>a/ | b/>c'/b/>a/ g/>a/g/>f/ | %6
 e/>c/e/>g/ c'[cc']/[cc']/ | [cbc'][^cb^c'][dbd'][ebe'] | [fac'] z [FAcf][Ac] | [Ad][Ac][Ac][GB] | %10
 [GB]>[FA] [FA][FA] | [FA]2 [^FB][FA] | [GB]/>B/d/>g/ bA | B/>c/B/>A/ G/>A/G/>F/ | %14
 E/>C/E/>G/ [cc']c/c/ | c=B_BG | [FA]/>F/A/>c/ f[Ac] | [Ad][Ac][Ac][GB] | [GB]>[FA] [FA][FA] | %19
 [FA]2 [^FB][FA] | [GB]/>D/G/>B/ dA | B/>c/B/>A/ G/>A/G/>F/ | E/>C/E/>G/ cc | c=B_BG | %24
 F z !>![FAcf][cac'] | [cac'] z [cac'] z | [dad']/>c'/a/>c'/ [dc'f'][cac'] | %27
 [cac'][cac'] [cac']/>[dad']/[cac']/>[Afb]/ | [Bgb]3 [cc'] | [ebe'][ebe'][ebe'][ebe'] | %30
 [dd']/>[cc']/[=B=b]/>[cc']/ [ff'][dd'] | [cc'][=B=b][_B_b][Gg] | [Ff] !>![cc']!>![dd']!>![ee'] | %33
 [cac'] z [cac'] z | [dad']/>c'/a/>c'/ [dc'f'][cac'] | [cac'][cac'] [cac']/>[dad']/[cac']/>[Afb]/ | %36
 [Bgb]3 [cc'] | [ebe'][ebe'][ebe'][ebe'] | [dd']/>[cc']/[=B=b]/>[cc']/ [ff'][dd'] | %39
 [cc'][^c^c'][dd'][ee'] |1,2 [ff'] z [FAcf] [cac'] :|3 [ff'] z [fac'f'] !fermata!z |] %42
V:3
 z | [F,,F,][A,CF] C,[A,CF] | [F,,F,][A,CF][A,CF][A,CF] | [F,,F,][A,CF] D,[^F,CD] | %4
 G,,[D,G,B,] [G,B,D]2 | B,,[G,B,D] =B,,[F,G,D] | C,[E,G,C][E,G,C][E,G,C] | %7
 [C,C][=B,,=B,][_B,,_B,][G,,G,] | [F,,F,] z [F,,F,] z | F,[A,CF] F,[A,CF] | F,[A,CF][A,CF] z | %11
 F,[A,CF] D,[A,CD] | G,[B,D][B,DG] z | G,[B,D] G,[B,DF] | C,[G,CE][G,CE] z | %15
 [C,E,C][D,F,D][E,G,E][C,E,C] | F,[A,C][A,C] z | F,[A,CF] D,[A,CF] | F,[A,CF][A,CF] z | %19
 F,[A,CF] D,[A,CD] | G,[B,D] [B,D] z | G,[B,D] G,[=B,DF] | C,[E,G,C] [E,G,C] z | %23
 [C,E,][D,F,][E,G,] z | F, z [F,,F,] z | F,[A,CF] C,[A,CE] | F,[A,CF] C,[A,CE] | %27
 F,[A,CF] C,[A,CE] | G,[B,CE] C,[B,CE] | G,[B,CE] C,[B,CE] | F,[A,CF][A,CF] z | [CE][DF][EG][B,E] | %32
 [A,F] [C,C] [=B,,=B,][_B,,_B,] | F,[A,CF] C,[A,CE] | F,[A,CF] F,[A,CF] | F,[A,CF] C,[A,CE] | %36
 G,[B,CE] C,[B,CE] | G,[B,CE] C,[B,CE] | F,[A,CF][A,CF] z | [C,C][=B,,=B,][_B,,_B,][G,,G,] |1,2 %40
 [F,,F,] z [F,,F,] z :|3 [F,,F,] z [F,,F,] !fermata!z |] %42

